X:493
T:
R:vals
S:Efter gelbgjutaren P. Jakobsson i Alva.
O:Gotland, Alva
M:3/4
L:1/8
K:C
g2 ^f2 g2|e'3 d' c'2|c'2 b2 a2|g4 f2|f2 e2 f2|_b3 a a2|a2 g2 d2|f4 e2|
g2 ^f2 g2|e'3 d' c'2|c'2 b2 a2|g4 f2|f'2 a3 g|e'2 g3 e|f2 e3 d|c6::
c'6|g2 a3 g|e4 g2|de f2 B2|d4 a2|ag g2 G2|e6|c2 e3 g|c'6|g2 a3 g|
e4 g2|de f2 B2|d4 c'2|bagfed|c6::gecGea|g4 f2|fdBGfg|f4 e2|
gecGea|g4 f2|bagfed|c6:|

